X: 40653
T: Top It Off
R: slip jig
M: 9/8
K: Dmajor
d2B|:A2F ~F3 d2A|Bcd e2c d2B|A2F ~F3 d2A|Bcd A2F ~D3:|
f2d d2c d2f|e2d =c2B c2A|d2B B2A B2d|=c2A A2G A2g|
f2d d2c d2f|e2d =c2B c2A|d2B B2A d2A|Bcd e2c d3||

